!!!!SEGMENT: pl-kk--kk-i-20--003_anonim--missa-de-nativitate-domini-sanctus.krn
!!!cenid: 17xx:2209
!!!COM: Anonim
!!!COM-rismID: pe30004985
!!!CDT:
!!!CNT:
!!!OPR: Missa De Nativitate Domini
!!!OTL: Sanctus
!!!OMV: 003
!!!PDT:
!!!AGN: Sacred; Mass
!!!SMS-siglum: PL-Kk
!!!SMS-shelfmark: Kk.I.20
!!!SMS-shelfwork: 001-003 M
!!!SMS-variant: Baſso. PL-KK Kk.I.20:0015-0016
!!!SMS-altvar: Baſso PL-KK Kk.I.20:0021
!!!NIFC-rismSourceID: 1001156656
!!!NIFC-rismChildID: 1001156656
!!!NIFC-islandoraID: pl-kk:15363
!!!URL-pdf-islandora: https://repozytorium.nifc.pl/islandora/object/pl-kk%3A15363/datastream/PDF/view
!!!URL-scan:
!!!ONB-nifc: UWAGA: części Mszy: 1. Kyrie, 2. Et in terra, 3. Sanctus, 4. Agnus Dei.
!!!AIN: 1 alto 1 empty 1 tenor
!!!key:
**kern	**text	**kern	**text	**kern	**text
*part3	*part3	*part2	*part2	*part1	*part1
*staff3	*staff3	*staff2	*staff2	*staff1	*staff1
*>[A,B,C,B]	*>[A,B,C,B]	*>[A,B,C,B]	*>[A,B,C,B]	*>[A,B,C,B]	*>[A,B,C,B]
*>A	*>A	*>A	*>A	*>A	*>A
*Iempty	*	*Itenor	*	*Ialto	*
*I"Baſso.	*	*I"Tenore	*	*I"Alto.	*
*I'B	*	*I'T	*	*I'A	*
*clefF4	*	*clefC4	*	*clefC3	*
*k[b-]	*	*k[b-]	*	*k[b-]	*
*M3/2	*	*M3/2	*	*M3/2	*
=1	=1	=1	=1	=1	=1
!LO:TX:t=P:problem=przy kluczu BB- B-	!	!	!	!	!
1D	San-	1A	San-	1a	San-
*	*	*2\right	*	*2\right	*
2GG/	-ctus	2B-\	-ctus	2g\	-ct(us)
=2	=2	=2	=2	=2	=2
*	*ij	*	*ij	*	*
1D	San-	1A	San-	1f#X	S(an)-
2GG/	-ctus	2G/	-ctus	2g\	-ctus
*	*Xij	*	*Xij	*	*
=3	=3	=3	=3	=3	=3
*	*	*	*	*	*ij
1D	S(an)-	1A	San-	1f#X	S(an)-
*2\right	*	*	*	*	*
2G\	-ctus	2B-\	-ctus	2g\	-ctus
=4	=4	=4	=4	=4	=4
*	*ij	*	*ij	*	*
1D	S(an)-	1A	San-	1a	S(an)-
2G\	-ctus	2G/	-ctus	2g\	-ctus
*	*Xij	*	*Xij	*	*
=5	=5	=5	=5	=5	=5
1F	S(an)-	2.A\	Do-	1fn	S(an)-
.	.	4B-\	-mi-	.	.
2FF/	-ctus	2c\	-nus	2f\	-ctus
=6	=6	=6	=6	=6	=6
*	*ij	*	*	*	*
2BB-/	S(an)-	2d\	San-	2d\	S(an)-
2FF/	.	(2c\	.	2f\	.
2GG/	.	(2B-\)	.	2d\	.
=7	=7	=7	=7	=7	=7
1.D	-ctus	1.A)	-ctus	1.d	-ctus
*	*Xij	*	*	*	*Xij
=8	=8	=8	=8	=8	=8
2.F\	Do-	2.F/	Do-	2.f\	Do-
4F\	-mi-	4G/	-mi-	4f\	-mi-
*custos:BB-	*	*custos:B-	*	*	*
2F\	-nus	2A/	-nus	2f\	-nus
!LO:PB:g=original	!	!LO:PB:g=original	!	!	!
=9	=9	=9	=9	=9	=9
1BB-	De-	1B-	De-	1d	De-
*	*	*	*	*custos:f	*
2BB-/	-us	2B-\	-us	2d\	-us
!	!	!	!	!LO:LB:g=original	!
=10	=10	=10	=10	=10	=10
1FF	Sab-	1A	Sab-	1f	Sab-
2GG/	-ba-	2G/	-ba-	2d\	-ba-
=11	=11	=11	=11	=11	=11
1.D;	-oth.	1.F;	-oth.	1.d;	-oth.
=12||	=12||	=12||	=12||	=12||	=12||
2BB-/	Ple-	2d\	Ple-	2f\	Ple-
2BB-/	-ni	2d\	-ni	2f\	-ni
2C/	s(un)t	2c\	sunt	2e-X\	sunt
=13	=13	=13	=13	=13	=13
1D	Cae-	1A	Cae-	1d	Cae-
2BB-/	-li	2B-\	-li	2f\	-li
=14	=14	=14	=14	=14	=14
2F\	Cae-	2A\	Cae-	2a\	Cae-
2F\	-li	2A\	-li	2a\	-li
2G\	et	2G/	et	2g\	et
=15	=15	=15	=15	=15	=15
1D	ter-	1F	ter-	1f#X	ter-
2GG/	-ra	2G/	-ra	2g\	-ra
=16	=16	=16	=16	=16	=16
2.G\	glo-	2.d\	glo-	2.g\	glo-
4A\	-ri-	4c\	-ri-	4f\	-ri-
2B-\	-a	2B-\	-a	2d\	-a
=17	=17	=17	=17	=17	=17
2F\	tu-	(2A\	tu-	2f\	tu-
1G	.	1G)	.	1d	.
!LO:LB:g=original	!	!LO:LB:g=original	!	!	!
=18	=18	=18	=18	=18	=18
1.D	-a	1.F	-a	1.d	-a
!	!	!	!	!LO:LB:g=original	!
=19	=19	=19	=19	=19	=19
2.BB-/	ple-	2.d\	Ple-	2f\	ple-
.	.	.	.	2f\	-ni
4BB-/	-ni	4c\	-ni	.	.
2C/	s(un)t	2B-\	s(un)t	2e-X\	s(un)t
=20	=20	=20	=20	=20	=20
1D	Cae-	1A	Cae-	1d	Cae-
2BB-/	-li	2B-\	-li	2f\	-li
=21	=21	=21	=21	=21	=21
2.F\	cae-	2.A\	Cae-	2a\	Cae-
.	.	.	.	2a\	-li
4F\	-li	4A\	-li	.	.
2G\	et	2G/	et	2g\	et
=22	=22	=22	=22	=22	=22
1D	ter-	1F	ter-	1f#X	ter-
2GG/	-ra	2G/	-ra	2g\	-ra
=23	=23	=23	=23	=23	=23
2.G\	glo-	2.d\	glo-	2.g\	glo-
4A\	-ri-	4c\	-ri-	4f\	-ri-
2B-\	-a	2B-\	-a	2d\	-a
=24	=24	=24	=24	=24	=24
2F\	tu-	2A\	tu-	2f\	tu-
1G	.	1G	.	1d	.
=25	=25	=25	=25	=25	=25
1.D	-a	1.F	-a	1.d	-a
=26	=26	=26	=26	=26	=26
2.G\	glo-	2.B-\	glo-	2.g\	glo-
4A\	-ri-	4c\	-ri-	4f\	-ri-
2B-\	-a	2d\	-a	2d\	-a
!	!	!LO:LB:g=original	!	!LO:LB:g=original	!
=27	=27	=27	=27	=27	=27
1F\	tu-	1c	tu-	1f	tu-
2G	.	2B-\	-a	2d\	-a
=28	=28	=28	=28	=28	=28
!LO:TX:t=P:problem=brak taktu nr 28	!	!	!	!	!
1.ryy	.	2G/	tu-	2e-X\	tu-
.	.	1A	.	1d	.
=29	=29	=29	=29	=29	=29
1.Dl;	-a.	1.Gl\;	-a	1.dl;	-a.
!LO:LB:g=original	!	!	!	!	!
=30||	=30||	=30||	=30||	=30||	=30||
*>B	*>B	*>B	*>B	*>B	*>B
*M3/2	*	*M3/2	*	*M3/2	*
2G\	O-	2d\	O-	2g\	O-
4G\	-san-	4d\	-san-	4g\	-san-
4G\	-na	4d\	-na	4d\	-na
4G\	in	4d\	in	4g\	in
4G\	ex-	4d\	ex-	4g\	ex-
=31	=31	=31	=31	=31	=31
1D	-cel-	1d	-cel-	1f#X	-cel-
2D/	-sis	2d\	-sis	2f#\	-sis
=32	=32	=32	=32	=32	=32
*	*ij	*	*ij	*	*
2BB-/	O-	2B-\	O-	2fn\	o-
4BB-/	-san-	4B-\	-san-	4f\	-san-
4BB-/	-na	4B-\	-na	4f\	-na
4BB-/	in	4B-\	in	4f\	in
4BB-/	ex-	4B-\	ex-	4f\	ex-
!	!	!	!	!LO:LB:g=original	!
=33	=33	=33	=33	=33	=33
1FF	-cel-	1A	-cel-	1f	-cel-
2FF/	-sis	2A\	-sis	2f\	-sis
*	*Xij	*	*Xij	*	*
!	!	!LO:LB:g=original	!	!	!
=34	=34	=34	=34	=34	=34
2F\	O-	2c\	O-	2f\	O-
2F\	-san-	2c\	-san-	2f\	-san-
2D\	-na	2d\	-na	2f\	-na
=35	=35	=35	=35	=35	=35
1C	in	1e-X	in	2.e-X\	in
.	.	.	.	4f\	.
2C/	ex-	2e-\	ex-	2g\	ex-
=36	=36	=36	=36	=36	=36
2C/	-cel-	2e-y\	-cel-	2e-X\	-cel-
1GG	.	1d	.	1g	.
!LO:LB:g=original	!	!	!	!	!
=37	=37	=37	=37	=37	=37
1.C	-sis	1.c	-sis	1.en	-sis
=38	=38	=38	=38	=38	=38
2C/	O-	2G/	O-	2e\	O-
2C/	-san-	2G/	-san-	2e\	-san-
2AA/	-na	2A/	-na	2e\	-na
=39	=39	=39	=39	=39	=39
2.BB-/	in	2.B-\	in	1d	in
4AA/	.	4c\	ex-	.	.
2GG/	ex-	2d\	-cel-	2g\	ex-
=40	=40	=40	=40	=40	=40
2G\	-cel-	2d\	.	2g\	-cel-
1D	.	1d	.	1f#X	.
=41	=41	=41	=41	=41	=41
1.GGl	-sis.	1.B-;	-sis.	1.g;	-sis.
!	!	!LO:LB:g=original	!	!LO:LB:g=original	!
=42||	=42||	=42||	=42||	=42||	=42||
*>C	*>C	*>C	*>C	*>C	*>C
*k[b-]	*	*k[b-]	*	*k[b-]	*
*M4/4	*	*M4/4	*	*M4/4	*
*met(C.)	*	*met(C.)	*	*met(C.)	*
4G\	Be-	00r	.	00r	.
4G\	-ne-	.	.	.	.
4F\	-di-	.	.	.	.
4F\	-ctus	.	.	.	.
=43	=43	=43	=43	=43	=43
4BB-/	q(ui)	.	.	.	.
4BB-/	ve-	.	.	.	.
2E-X\	-nit	.	.	.	.
!LO:LB:g=original	!	!	!	!	!
=44	=44	=44	=44	=44	=44
8.E-\L	in	.	.	.	.
16F\Jk	.	.	.	.	.
8E-\L	.	.	.	.	.
8D\J	.	.	.	.	.
8C/L	No-	.	.	.	.
8D/	.	.	.	.	.
8E-/	.	.	.	.	.
8F/J	.	.	.	.	.
=45	=45	=45	=45	=45	=45
8G\	-mi-	.	.	.	.
8G\	-ne	.	.	.	.
4F\	Do-	.	.	.	.
4.G\	.	.	.	.	.
8GG/	-mi-	.	.	.	.
=46	=46	=46	=46	=46	=46
1C	-ni	1r	.	00r	.
=47	=47	=47	=47	=47	=47
4G\	Be-	4B-\	Be-	.	.
4G\	-ne-	4B-\	-ne-	.	.
4F\	-di-	4c\	-di-	.	.
4F\	-ct(us)	4c\	-ct(us)	.	.
=48	=48	=48	=48	=48	=48
4BB-/	q(ui)	4d\	q(ui)	.	.
4BB-/	ve-	4d\	ve-	.	.
2E-X\	-nit	2B-\	-nit	.	.
=49	=49	=49	=49	=49	=49
4.E-X\	in	4r	.	.	.
.	.	4B-\	in	.	.
8D\	.	.	.	.	.
2C/	No-	2e-X\	No-	.	.
=50	=50	=50	=50	=50	=50
4G\	-mi-	4d\	-mi-	0r	.
4F\	-ne	4c\	-ne	.	.
4.G\	D(o)-	4.d\	Do-	.	.
8GG/	-(mi)-	8d\	-mi-	.	.
=51	=51	=51	=51	=51	=51
1C	-ni	1c	-ni	.	.
!LO:LB:g=original	!	!	!	!	!
=52	=52	=52	=52	=52	=52
4C/	Be-	4G/	Be-	4e-X\	Be-
4C/	-ne-	4G/	-ne-	4e-\	-ne-
4G\	-di-	4B-\	-di-	4g\	-di-
4F\	-ct(us)	4c\	-ct(us)	4f\	-ctus
=53	=53	=53	=53	=53	=53
4D/	qui	4B-\	q(ui)	4f\	q(ui)
4C/	ve-	4G/	ve-	4en\	ve-
4F\	-nit	4A,</	-nit	4f\	-nit
4F\	in	4A/	in	4f\	in
!	!	!LO:LB:g=original	!	!	!
=54	=54	=54	=54	=54	=54
4F\	No-	2A/	No-	2f\	No-
4FF/	.	.	.	.	.
4GG/	.	4G/	-mi-	8d\	.
.	.	.	.	8e\	-mi-
8AA/	-mi-	4F/	-ne	4f\	-ne
8BB-/	-ne	.	.	.	.
=55	=55	=55	=55	=55	=55
4.C/	Do-	4.E/	Do-	4.en\	Do-
8C/	-mi-	8E/	-mi-	8e\	-mi-
2F\	-ni	2F/	-ni	2f\	-ni
=56	=56	=56	=56	=56	=56
4BB-/	in	4B-\	in	4f\	in
2F\	No-	2A\	No-	2f\	No-
8G\	-mi-	8G/	-mi-	8d\	-mi-
8G\	-ne	8G/	-ne	8d\	-ne
!	!	!	!	!	!LO:LB:g=original
=57	=57	=57	=57	=57	=57
4.D/	D(o)-	4.F/	Do-	4.d\	Do-
8D/	-(mi)-	8F/	-mi-	8d\	-mi-
4GG/	-ni	4G/	-ni	4d\	-ni
4G\	in	4G/	in	4d\	in
!LO:PB:g=original	!	!	!	!	!
=58	=58	=58	=58	=58	=58
4C/	No-	4e-X\	No-	4c/	No-
8C/	-mi-	8e-\	-mi-	8c/	-mi-
8BB-/	-ne	8d\	-ne	8c/	-ne
4.D\	Do-	4.d\	Do-	4.d\	Do-
8D\	-mi-	8d\	-mi-	8d\	-mi-
=59	=59	=59	=59	=59	=59
!	!	!LO:TX:b:i:t=Osanna\nda Capo	!	!LO:TX:b:i:t=Osanna da Capo	!
!LO:TX:b:i:t=Osanna da Capo	!	!LO:N:vis=1.	!	!LO:N:vis=1.	!
1GG;	-ni.	1d;	-ni.	1d;	-ni.
==	==	==	==	==	==
*-	*-	*-	*-	*-	*-
!!!system-decoration: [(s1,s2,s3)]
!!!RDF**kern: > = above
!!!RDF**kern: < = below
!!!RDF**kern: l = terminal long
!!!ENC: Andrzej Kubiczek
!!!END: 2021-07-20
!!!ENC: Andrzej Gręziak
!!!END: 2021-07-02
!!!YEC: Copyright 2022 Narodowy Instytut Fryderyka Chopina (https://polishscores.org)
!!!YEM: License CC-BY-4.0 (https://creativecommons.org/licenses/by/4.0)
